X: 35867
T: Sandansko Oro
R: slip jig
M: 9/8
K: Eminor
|[M:9/8]E2 B2 A2 B2A|[M:13/28] GAAG BA A2G GFFE|[M:9/8] E>F GGGF A2G|[M:13/28] GF FEFE E3 E2E2|
[M:9/8]E2 B2 A2 B2A|[M:13/28] GAAG BA A2G GFFE|[M:9/8] EF GGGF A2G|[M:13/28] GFFE EF E2D E2E2|
[M:9/8] EF GGGF A2G|[M:13/28] GFFE FA A3 B2GF|[M:9/8] EF GGGF A2G|[M:13/28] GFFE EF E2D E2E2|
[M:9/8] EF GGGF A2G|[M:13/28] GFFE FA A3 B2GF|[M:9/8] EF GGGF A2G|[M:13/28] GFFE EF E2D E2E2|

